img/svg/wallet.svg

<svg width="24" height="24" viewBox="0 0 24 24" fill="none" xmlns="http://www.w3.org/2000/svg">
    <path
        d="M21.5999 16.56V17.56C22.1522 17.56 22.5999 17.1123 22.5999 16.56H21.5999ZM21.5999 11.28H22.5999C22.5999 10.7277 22.1522 10.28 21.5999 10.28V11.28ZM7.13914 6.11884C6.67457 6.41749 6.54007 7.0362 6.83872 7.50077C7.13738 7.96534 7.75609 8.09985 8.22066 7.80119L7.13914 6.11884ZM14.3999 2.64001L15.1893 2.02607C14.8715 1.61753 14.2945 1.51896 13.8591 1.79884L14.3999 2.64001ZM16.9705 7.57396C17.3096 8.0099 17.9379 8.08844 18.3738 7.74937C18.8098 7.4103 18.8883 6.78202 18.5493 6.34607L16.9705 7.57396ZM21.5999 15.56H18.4799V17.56H21.5999V15.56ZM18.4799 12.28H21.5999V10.28H18.4799V12.28ZM20.5999 11.28V16.56H22.5999V11.28H20.5999ZM16.8399 13.92C16.8399 13.0143 17.5742 12.28 18.4799 12.28V10.28C16.4696 10.28 14.8399 11.9097 14.8399 13.92H16.8399ZM18.4799 15.56C17.5742 15.56 16.8399 14.8258 16.8399 13.92H14.8399C14.8399 15.9303 16.4696 17.56 18.4799 17.56V15.56ZM8.22066 7.80119L14.9407 3.48119L13.8591 1.79884L7.13914 6.11884L8.22066 7.80119ZM13.6105 3.25396L16.9705 7.57396L18.5493 6.34607L15.1893 2.02607L13.6105 3.25396ZM3.3599 7.96002H19.6799V5.96002H3.3599V7.96002ZM19.6799 20.36H3.3599V22.36H19.6799V20.36ZM3.3999 20.4V7.92002H1.3999V20.4H3.3999ZM3.3599 20.36C3.38199 20.36 3.3999 20.3779 3.3999 20.4H1.3999C1.3999 21.4825 2.27742 22.36 3.3599 22.36V20.36ZM19.6399 20.4C19.6399 20.3779 19.6578 20.36 19.6799 20.36V22.36C20.7624 22.36 21.6399 21.4825 21.6399 20.4H19.6399ZM19.6799 7.96002C19.6578 7.96002 19.6399 7.94211 19.6399 7.92002H21.6399C21.6399 6.83754 20.7624 5.96002 19.6799 5.96002V7.96002ZM3.3599 5.96002C2.27742 5.96002 1.3999 6.83754 1.3999 7.92002H3.3999C3.3999 7.94211 3.38199 7.96002 3.3599 7.96002V5.96002ZM19.6399 17.28V20.4H21.6399V17.28H19.6399ZM19.6399 7.92002V10.44H21.6399V7.92002H19.6399Z"
        fill="#0BBA74" />
</svg>

<svg width="24" height="24" viewBox="0 0 24 24" fill="none" xmlns="http://www.w3.org/2000/svg"><path d="M21.6 16.56v1a1 1 0 001-1h-1zm0-5.28h1a1 1 0 00-1-1v1zM7.14 6.119A1 1 0 108.22 7.8L7.14 6.12zM14.4 2.64l.79-.614a1 1 0 00-1.33-.227l.54.841zm2.57 4.934a1 1 0 001.58-1.228l-1.58 1.228zm4.63 7.986h-3.12v2h3.12v-2zm-3.12-3.28h3.12v-2h-3.12v2zm2.12-1v5.28h2v-5.28h-2zm-3.76 2.64c0-.906.734-1.64 1.64-1.64v-2a3.64 3.64 0 00-3.64 3.64h2zm1.64 1.64a1.64 1.64 0 01-1.64-1.64h-2a3.64 3.64 0 003.64 3.64v-2zM8.22 7.801l6.72-4.32L13.86 1.8 7.14 6.12 8.22 7.8zm5.39-4.547l3.36 4.32 1.58-1.228-3.36-4.32-1.58 1.228zM3.36 7.96h16.32v-2H3.36v2zm16.32 12.4H3.36v2h16.32v-2zM3.4 20.4V7.92h-2V20.4h2zm-.04-.04a.04.04 0 01.04.04h-2a1.96 1.96 0 001.96 1.96v-2zm16.28.04a.04.04 0 01.04-.04v2a1.96 1.96 0 001.96-1.96h-2zm.04-12.44a.04.04 0 01-.04-.04h2a1.96 1.96 0 00-1.96-1.96v2zm-16.32-2A1.96 1.96 0 001.4 7.92h2a.04.04 0 01-.04.04v-2zm16.28 11.32v3.12h2v-3.12h-2zm0-9.36v2.52h2V7.92h-2z" fill="#0BBA74"/></svg>
